lib/brands/icons/jss.svg

<svg xmlns="http://www.w3.org/2000/svg" fill="none" aria-hidden="true" viewBox="0 0 48 48"><g id="jss-Icon"><g id="Group"><path id="Vector" fill="#F7DF1E" d="M6.26074 10.0078H34.5397V37.9922H6.26074V10.0078Z"/><path id="Vector_2" fill="#EEEEEE" d="M34.8 38.25H6V9.75H34.8V38.25ZM6.5409 37.7115H34.2588V10.2885H6.5409V37.7115Z"/><path id="Vector_3" fill="black" d="M25.2879 31.9722C25.8588 32.9046 26.6016 33.5898 27.9156 33.5898C29.0193 33.5898 29.7243 33.0381 29.7243 32.2761C29.7243 31.3629 29.0001 31.0392 27.7851 30.5079L27.1194 30.2223C25.1973 29.4036 23.9205 28.3776 23.9205 26.2089C23.9205 24.2112 25.4424 22.6905 27.8214 22.6905C29.5149 22.6905 30.7326 23.28 31.6098 24.8232L29.5356 26.1549C29.079 25.3359 28.5864 25.0134 27.8214 25.0134C27.0411 25.0134 26.5467 25.5084 26.5467 26.1549C26.5467 26.9538 27.0417 27.2775 28.1844 27.7725L28.8504 28.0578C31.1136 29.0283 32.3913 30.0177 32.3913 32.2422C32.3913 34.6401 30.5076 35.9541 27.9774 35.9541C25.5036 35.9541 23.9055 34.7754 23.1234 33.2304C23.1234 33.2298 25.2879 31.9722 25.2879 31.9722ZM34.8966 31.9722C35.4675 32.9046 36.2103 33.5898 37.5243 33.5898C38.628 33.5898 39.333 33.0381 39.333 32.2761C39.333 31.3629 38.6088 31.0392 37.3938 30.5079L36.7281 30.2223C34.806 29.4036 33.5292 28.3776 33.5292 26.2089C33.5292 24.2112 35.0511 22.6905 37.4301 22.6905C39.1236 22.6905 40.3413 23.28 41.2185 24.8232L39.1443 26.1549C38.6877 25.3359 38.1951 25.0134 37.4301 25.0134C36.6498 25.0134 36.1554 25.5084 36.1554 26.1549C36.1554 26.9538 36.6504 27.2775 37.7931 27.7725L38.4591 28.0578C40.722 29.028 41.9997 30.0174 41.9997 32.2419C41.9997 34.6398 40.116 35.9538 37.5858 35.9538C35.112 35.9538 33.5139 34.7751 32.7318 33.2301L34.8966 31.9722ZM15.8787 32.2032C16.2972 32.9457 16.6779 33.5733 17.5929 33.5733C18.468 33.5733 19.02 33.231 19.02 31.8996V22.8423H21.6834V31.9353C21.6834 34.6932 20.0664 35.9487 17.706 35.9487C15.5733 35.9487 14.3382 34.845 13.71 33.5157L15.8787 32.2032C15.8787 32.2032 15.8787 32.2029 15.8787 32.2032Z"/></g></g></svg>

<svg xmlns="http://www.w3.org/2000/svg" fill="none" aria-hidden="true" viewBox="0 0 48 48"><path fill="#F7DF1E" d="M6.26 10.008h28.28v27.984H6.26V10.008Z"/><path fill="#EEE" d="M34.8 38.25H6V9.75h28.8v28.5Zm-28.26-.538h27.72V10.288H6.54v27.424Z"/><path fill="#000" d="M25.288 31.972c.57.933 1.314 1.618 2.628 1.618 1.103 0 1.808-.552 1.808-1.314 0-.913-.724-1.237-1.939-1.768l-.666-.286c-1.922-.818-3.198-1.844-3.198-4.013 0-1.998 1.521-3.518 3.9-3.518 1.694 0 2.912.589 3.789 2.132l-2.074 1.332c-.457-.82-.95-1.142-1.715-1.142-.78 0-1.274.495-1.274 1.142 0 .799.495 1.122 1.637 1.617l.666.286c2.264.97 3.541 1.96 3.541 4.184 0 2.398-1.883 3.712-4.414 3.712-2.473 0-4.072-1.179-4.854-2.724l2.165-1.258Zm9.609 0c.57.933 1.313 1.618 2.627 1.618 1.104 0 1.809-.552 1.809-1.314 0-.913-.724-1.237-1.94-1.768l-.665-.286c-1.922-.818-3.199-1.844-3.199-4.013 0-1.998 1.522-3.518 3.901-3.518 1.694 0 2.911.589 3.788 2.132l-2.074 1.332c-.456-.82-.949-1.142-1.714-1.142-.78 0-1.275.495-1.275 1.142 0 .799.495 1.122 1.638 1.617l.666.286c2.263.97 3.54 1.96 3.54 4.184 0 2.398-1.883 3.712-4.413 3.712-2.474 0-4.072-1.179-4.854-2.724l2.165-1.258Zm-19.018.231c.418.743.799 1.37 1.714 1.37.875 0 1.427-.342 1.427-1.673v-9.058h2.663v9.093c0 2.758-1.617 4.014-3.977 4.014-2.133 0-3.368-1.104-3.996-2.433l2.169-1.313Z"/></svg>
